X:5
T:Hora Din Arges
R:hora
S:Youtube "Hora Nr 137"
O:Romania
Z:id:hn-hora-5
M:C|
L:1/8
K:Bphr ^d =c
|: BcAc BBBF | BcAc BBBF | Bcde fed2 | dBde f4 |
   aaaf gag2 | gefg dddB | cdc2 cABc | B2F2 B4 :|
|: B2f2 fede | ddcd cBcA | B2f2 fede | d2cd cBcA |
   B2f2 fede | fgab c'bag | agf2 fed2 | cBAc B4 :|
|: BcAc BBBF | BcAc BBBF | Bcde fed2 | dBde f4 |
   aaaf gag2 | gefg dddB | cdc2 cBAc | B2F2 B4 :|
|: Bcde fed2 | dBde fffc | defg agf2 | fdfg a4 |
   fgab c'ba2 | agfg fffc | ded2 cBAc | B2F2 B4 :|
|: BcAc BBBF | BcAc BBBF | Bcde fed2 | dBde f4 |
   aaaf gag2 | gefg dddB | cdc2 cBAc | B2F2 B4 :|

